!!!!SEGMENT: pl-wn--mus-iii-69-873_zelenski-wladyslaw--romance-danse-fantastique-op-29-nr-1.krn
!!!cenid: 18xx:3708
!!!COM: Żeleński, Władysław
!!!COM-rismid: pe41024455
!!!CDT:
!!!CNT:
!!!OTL: Romance/Danse fantastique op. 29 nr 1
!!!PDT:
!!!AGN:
!!!SMS-siglum: PL-Wn
!!!SMS-shelfmark: Mus.III.69.873
!!!SMS-shelfwork: G
!!!SMS-variant: Partytura PL-Wn Mus.III.69.873:2-7
!!!SMS-altvar: Violon PL-Wn Mus.III.69.873:2a-3a
!!!NIFC-rismid:
!!!URL-scan: https://polona.pl/item/romance-pour-violon-et-piano-op-29-nr-1,NzA2MzkyOTI/0/#info:metadata
!!!ONB-nifc:
**kern	**kern	**dynam	**kern	**dynam
*part2	*part2	*part2	*part1	*part1
*staff3	*staff2	*	*staff1	*
*Iempty	*Ipiano	*	*Iempty	*
*	*I"Piano.	*	*I"Violon.	*
*	*I'pf	*	*I'vlc	*
*	*ICklav	*	*ICstr	*
*clefF4	*clefG2	*	*clefG2	*
*k[f#]	*k[f#]	*	*k[f#]	*
*G:	*G:	*	*G:	*
*M6/8	*M6/8	*	*M6/8	*
=1	=1	=1	=1	=1
!LO:TX:b:i:t=con Pedale	!	!	!LO:TX:a:b:i:t=Andante molto cantabile. M.M. [halfquarter] = 108.	!
(16GG/LL	(>16B/LL	pp	2.r	.
!	!LO:TX:b:i:t=sempre molto legato	!	!	!
16D/	16g/	.	.	.
16G/	16d/	.	.	.
16D/	16b/	.	.	.
16GG/	16g/	.	.	.
16D/JJ	16d/JJ	.	.	.
16G/LL	16B/LL	.	.	.
16D/	16g/	.	.	.
16GG/	16d/	.	.	.
16D/	16b/	.	.	.
16G/	16g/	.	.	.
16D/JJ	16d/JJ	.	.	.
=2	=2	=2	=2	=2
16GG/LL	16B/LL	.	2.r	.
16D/	16g/	.	.	.
16G/	16d/	.	.	.
16D/	16b/	.	.	.
16GG/	16g/	.	.	.
16D/JJ	16d/JJ	.	.	.
16G/LL	16B/LL	.	.	.
16D/	16g/	.	.	.
16GG/	16d/	.	.	.
16D/	16b/	.	.	.
16G/	16g/	.	.	.
16D/JJ)	16d/JJ)	.	.	.
=3	=3	=3	=3	=3
16GG/LL	16B/LL	.	[4.dd\	p
16D/	16g/	.	.	.
16G/	16d/	.	.	.
16D/	16b/	.	.	.
16GG/	16g/	.	.	.
16D/JJ	16d/JJ	.	.	.
16G/LL	16B/LL	.	4dd\]	.
16D/	16g/	.	.	.
16GG/	16d/	.	.	.
16D/	16b/	.	.	.
16G/	16g/	.	(8dd\	.
16D/JJ	16d/JJ	.	.	.
!!LO:LB:g=original
=4	=4	=4	=4	=4
16GG/LL	16A/LL	.	8ee\L)	.
16C#X/	16e/	.	.	.
16G/	16c#X/	.	(8ff#~\	.
16C#/	16a/	.	.	.
16GG/	16e/	.	8gg~\J)	.
16BB/JJ	16c#/JJ	.	.	.
16F#/LL	16A/LL	.	(4aa\	.
16D/	16d/	.	.	.
16GG/	16cn/	.	.	.
16D/	16a/	.	.	.
16F#/	16d/	.	8dd\)	.
16D/JJ	16c/JJ	.	.	.
=5	=5	=5	=5	=5
16G/LL	16B/LL	<	[4.bb\	<
16D/	16g/	.	.	.
16GG/	16d/	.	.	.
16D/	16b/	.	.	.
16G/	16g/	.	.	.
16D/JJ	16d/JJ	.	.	.
16GG/LL	16B/LL	.	8bb\L]	.
16D/	16g/	.	.	.
16G/	16d/	.	(8gg\	.
16D/	16b/	.	.	.
16GG/	16g/	.	8eee\J)	.
16D/JJ	16d/JJ	.	.	.
=6	=6	=6	=6	=6
16G/LL	16B/LL	.	4.ddd\	.
16D/	16g/	.	.	.
16GG/	16d/	.	.	.
16D/	16b/	.	.	.
16G/	16g/	.	.	.
16D/JJ	16d/JJ	.	.	.
16GG/LL	16B/LL	.	4ddd\	.
16D/	16g/	.	.	.
16G/	16d/	.	.	.
16D/	16b/	.	.	.
16GG/	16g/	.	8ggg\	[ p
16D/JJ	16d/JJ	[[	.	.
=7	=7	=7	=7	=7
16A\LL	16c/LL	pp	4.fff#\	.
16D\	16f#/	.	.	.
16AA\	16d/	.	.	.
16D\	16cc/	.	.	.
16A\	16f#/	.	.	.
16D\JJ	16d/JJ	.	.	.
16GG/LL	16c/LL	.	4.eee\	.
16C/	16g/	.	.	.
16G/	16e/	.	.	.
16C/	16cc/	.	.	.
16GG/	16g/	.	.	.
16C/JJ	16e/JJ	.	.	.
!!LO:LB:g=original
=8	=8	=8	=8	=8
16A/LL	16c/LL	.	(4ddd\	.
16D/	16a/	.	.	.
16FF#/	16d/	.	.	.
16D/	16cc/	.	.	.
16A/	16a/	.	8aa\)	.
16D/JJ	16d/JJ	.	.	.
16EE/LL	16c/LL	<	8ccc\L	<
16C/	16a/	.	.	.
16A/	16e/	.	8ccc\	.
16C/	16cc/	.	.	.
!	!LO:TX:b:i:t=un poco	!	!LO:TX:b:i:t=un poco	!
16EE/	16a/	.	8ccc\J	.
16C/JJ	16e/JJ	.	.	.
=9	=9	=9	=9	=9
16A/LL	16B/LL	.	[4.bb\	.
16BB/	16a/	.	.	.
16DD#X/	16f#/	.	.	.
16BB/	16b/	.	.	.
16F#/	16a/	.	.	.
16BB/JJ	16f#/JJ	.	.	.
16EE/LL	16B/LL	.	8bb\L]	.
16BB/	16g/	.	.	.
16G/	16e/	.	8aa\	.
16BB/	16b/	.	.	.
16EE/	16g/	.	[8gg\J	.
16BB/JJ	16e/JJ	.	.	.
=10	=10	=10	=10	=10
16G\LL	16B/LL	.	8gg\L]	.
16E\	16g/	.	.	.
16AA\	16c#X/	.	8ff#\	.
16E\	16b/	.	.	.
16F#\	16g/	.	[8ee\J	.
16E\JJ	16c#/JJ	.	.	.
16AA\LL	16A/LL	.	8eeW\L]	.
16E\	16g/	.	.	.
16G\	16c#/	.	(8dd~\	.
16E\	16a/	.	.	.
16AA\	16g/	.	8cc#X~\J)	.
16E\JJ	16c#/JJ	.	.	.
=11	=11	=11	=11	=11
16G/LL	16A/LL	>	[4.ee^\	.
16AA/	16g/	.	.	.
16DD/	16cn/	.	.	.
16AA/	16a/	.	.	.
16E/	16g/	.	.	.
16AA/JJ	16e/JJ	.	.	.
!	!	!	!LO:TX:b:i:t=dolce	!
16DD/LL	16c/LL	.	16ee/LL]	.
16AA/	16g/	.	(16dd/	.
16G/	16e/	.	16ccn/	.
16AA/	16cc/	.	16e/	.
16DD/	16f#/	.	16f#/	.
16AA/JJ	16e/JJ	]]	16g/JJ)	.
!!LO:LB:g=original
=12	=12	=12	=12	=12
16F#/LL	16c/LL	.	4.b\	.
16AA/	16f#/	.	.	.
16DD/	16d/	.	.	.
16AA/	16cc/	.	.	.
16F#/	16f#/	.	.	.
16AA/JJ	16d/JJ	.	.	.
16DD/LL	16c/LL	.	(4a/	.
16AA/	16f#/	.	.	.
16F#/	16d/	.	.	.
16AA/	16cc/	.	.	.
16DD/	16f#/	.	8d/)	.
16AA/JJ	16d/JJ	.	.	.
=13	=13	=13	=13	=13
16GG/LL	16B/LL	pp	[4.b\	p
16D/	16g/	.	.	.
16G/	16d/	.	.	.
16D/	16b/	.	.	.
16GG/	16g/	.	.	.
16D/JJ	16d/JJ	.	.	.
16G/LL	16B/LL	.	8b\L]	.
16D/	16g/	.	.	.
16GG/	16d/	.	(8ee\	.
16D/	16b/	.	.	.
16G/	16g/	.	8b\J)	.
16D/JJ	16d/JJ	.	.	.
=14	=14	=14	=14	=14
16AA\LL	16c/LL	.	[4.cc\	.
16D\	16g/	.	.	.
16A\	16d/	.	.	.
16D\	16cc/	.	.	.
16AA\	16g/	.	.	.
16D\JJ	16d/JJ	.	.	.
16A\LL	16c/LL	<	8cc\L]	<
16D\	16f#/	.	.	.
16AA\	16d/	.	(8b~\	.
16D\	16cc/	.	.	.
!	!LO:TX:b:i:t=ed un poco stringendo	!	!	!
16A\	16f#/	.	8cc~\J)	.
16D\JJ	16e/JJ	.	.	.
=15	=15	=15	=15	=15
!	!	!	!LO:TX:b:i:t=ed un poco stringendo	!
16BB\LL	16d/LL	.	[4.dd\	.
16F#\	16b/	.	.	.
16B\	16f#/	.	.	.
16F#\	16dd/	.	.	.
16BB\	16b/	.	.	.
16F#\JJ	16f#/JJ	.	.	.
16B\LL	16d/LL	.	8dd\L]	.
16G\	16b/	.	.	.
16BB\	16f#/	.	(8gg\	.
16G\	16dd/	.	.	.
16B\	16b/	.	8dd#X\J)	.
16G\JJ	16f#/JJ	.	.	.
!!LO:PB:g=original
=16	=16	=16	=16	=16
16C\LL	16e/LL	.	[4.ee\	.
16G\	16b/	.	.	.
16B\	16g/	.	.	.
16G\	16ee/	.	.	.
16C\	16b/	.	.	.
16G\JJ	16g/JJ	.	.	.
16B\LL	16e/LL	.	8ee\L]	.
16G\	16b/	.	.	.
16C\	16g/	.	(8ff#~\	.
16G\	16ee/	.	.	.
16B\	16b/	.	8gg~\J)	.
16G\JJ	16g/JJ	.	.	.
=17	=17	=17	=17	=17
!	!	!	!LO:TX:b:i:t=con espress.	!
16C#X\LL	16e/LL	.	4.aa\	.
16G\	16a/	.	.	.
16A\	16g/	.	.	.
16G\	16ee/	.	.	.
16C#\	16a/	.	.	.
16G\JJ	16g/JJ	.	.	.
16D#X\LL	16f#/LL	.	(4bb\	.
16A\	16b/	.	.	.
16B\	16a/	.	.	.
16A\	16ff#/	.	.	.
16D#\	16b/	.	8ff#\)	.
16A\JJ	16a/JJ	.	.	.
=18	=18	=18	=18	=18
16E\LL	16g\LL	mf	4gg\	.
16G\	16ee\	.	.	.
!	!LO:TX:b:i:t=poco riten.	!	!	!
16B\	16b\	.	.	.
16G\	16gg\	.	.	.
!	!	!	!LO:TX:b:i:t=poco riten.	!
16E\	16ee\	.	[8ggg\	f
16G\JJ	16b\JJ	.	.	.
16AA#X\LL	16cc#X/LL	.	8ggg\L]	.
16F#\	16f#/	.	.	.
16A#X\	16c#X/	.	8fff#\	.
16F#\	16f#/	.	.	.
16AA#\	16e/	.	8eee\J	.
16F#\JJ	16cc#/JJ	.	.	.
=19	=19	=19	=19	=19
!	!LO:TX:b:i:t=a tempo	!	!LO:TX:b:i:t=a tempo	!
16BB\LL	16d/LL	.	[4.ddd\	.
16F#\	16b/	.	.	.
16B\	16f#/	.	.	.
16F#\	16dd/	.	.	.
16BB\	16b/	.	.	.
16F#\JJ	16f#/JJ	.	.	.
16G\LL	16g\LL	.	16ddd\LL]	.
16BB\	16dd\	.	(16bb~\	.
16EE\	16b\	.	16gg~\	.
16BB\	16gg\	.	16ee~\	.
16G\	16dd\	.	16ff#~\	.
16BB\JJ	16b\JJ	.	16gg~\JJ)	.
!!LO:LB:g=original
=20	=20	=20	=20	=20
.	.	.	8qgg/	p
16AA\LL	16A/LL	>	(4bb\	.
16E\	16g/	.	.	.
16G\	16c#X/	.	.	.
16E\	16a/	.	.	.
16AA\	16g/	.	8aa\)	.
16E\JJ	16c#/JJ	.	.	.
16G\LL	16c#/LL	.	(8gg\L	>
16E\	16g/	.	.	.
16AA\	16e/	.	8b\	.
16E\	16cc#X/	.	.	.
16G\	16g/	.	8cc#X\J)	]]
16E\JJ	16e/JJ	]]	.	.
=21	=21	=21	=21	=21
16DD/LL	8d/	pp	4dd\	.
16AA/	.	.	.	.
16F#/	8r	.	.	.
16AA/	.	.	.	.
!	!	!LO:HP:a	!	!
16DD/	(8a/	>	8r	.
16AA/JJ	.	.	.	.
16E/LL	8g/L	.	4r	.
16AA/	.	.	.	.
16DD/	8B/	.	.	.
16AA/	.	.	.	.
16G/	8c#X/J	]]	8r	.
16AA/JJ	.	.	.	.
=22	=22	=22	=22	=22
8DD/	(16d/LL)	.	4r	.
.	16A/	.	.	.
8r	16F#/	.	.	.
.	16d/	.	.	.
!	!	!LO:HP:b=2	!	!
(8D/	16A/	>	8r	.
.	16f#/JJ	.	.	.
8C/L	16A/LL	.	4.a/	p
.	16d/	.	.	.
8EE/	16cn/	.	.	.
.	16a/	.	.	.
8FF#/J	16d/	.	.	.
.	16c/JJ	]]	.	.
=23	=23	=23	=23	=23
8GG/)	16B-X/LL	.	([4.b-X\	.
.	16g/	.	.	.
8r	16d/	.	.	.
.	16b-X/	.	.	.
8r	16g/	.	.	.
.	16d/JJ	.	.	.
16G\LL	16B-/LL	.	8b-\L]	.
16D\	16g/	.	.	.
16GG\	16d/	.	8cc\	.
16D\	16b-/	.	.	.
16G\	16g/	.	8dd\J)	.
16D\JJ	16d/JJ)	.	.	.
!!LO:LB:g=original
=24	=24	=24	=24	=24
16C\LL	16B-X/LL	<	8ee-X\L	<
16E-X\	16g/	.	.	.
16G\	16e-X/	.	(8dd~\	.
16E-\	16b-X/	.	.	.
16C\	16g/	.	8ee-~\J)	.
16E-\JJ	16e-/JJ	.	.	.
16Fn/LL	16A/LL	[ >	(4ffn\	[ >
16C/	16fn/	.	.	.
16FFn/	16e-/	.	.	.
16C/	16a/	.	.	.
16F/	16f/	.	8ccn\)	]]
16C/JJ	16e-/JJ	]]	.	.
=25	=25	=25	=25	=25
!	!	!	!LO:TX:b:i:t=dolce	!
16BB-X\LL	16d/LL	pp	[4.dd\	.
16Fn\	16b-X/	.	.	.
16B-X\	16fn/	.	.	.
16F\	16dd/	.	.	.
16BB-\	16b-/	.	.	.
16F\JJ	16f/JJ	.	.	.
16B-\LL	16d/LL	.	8dd\L]	.
16F\	16b-/	.	.	.
16BB-\	16f/	.	(8b-X\	.
16F\	16dd/	.	.	.
16B-\	16b-/	.	8gg\J)	.
16F\JJ	16f/JJ	.	.	.
=26	=26	=26	=26	=26
16FFn/LL	16c/LL	.	(4.ffn\	.
16C/	16b-X/	.	.	.
16B-X/	16fn/	.	.	.
16C/	16cc/	.	.	.
16FF/	16b-/	.	.	.
16C/JJ	16f/JJ	.	.	.
16A/LL	16c/LL	.	4cc\	.
16C/	16a/	.	.	.
16FF/	16f/	.	.	.
16C/	16cc/	.	.	.
16A/	16a/	.	8cc~\)	.
16C/JJ	16f/JJ	.	.	.
=27	=27	=27	=27	=27
8BB-X/	16d-X/LL	<	[4.dd-Xv\	<
.	16b-X/	.	.	.
8r	16fn/	.	.	.
.	16dd-X/	.	.	.
8r	16b-/	.	.	.
.	16f/JJ	.	.	.
16B-X\LL	16d-/LL	.	8dd-\L]	.
16Fn\	16b-/	.	.	.
16BB-\	16f/	.	8ee-X\	.
16F\	16dd-/	.	.	.
16B-\	16b-/	.	8ffn\J	.
16F\JJ	16f/JJ	.	.	.
!!LO:LB:g=original
=28	=28	=28	=28	=28
!	!	!	!LO:TX:a:i:t=P:problem:♭ above	!
16E-X\LL	16d-X/LL	.	8gg-XW\L	.
16G-X\	16b-X/	.	.	.
16B-X\	16g-X/	.	(8ffn~\	.
16G-\	16dd-X/	.	.	.
16E-\	16b-/	.	8gg-~\J)	.
16G-\JJ	16g-/JJ	.	.	.
!	!	!	!LO:TX:b:i:t=espress.	!
16A-X\LL	16c/LL	.	(4aa-X\	[
16E-\	16a-X/	.	.	.
16AA-X\	16g-/	.	.	.
16E-\	16cc/	.	.	.
16A-\	16a-/	.	8ee-X\)	.
16E-\JJ	16g-/JJ	[[	.	.
=29	=29	=29	=29	=29
16D-X\LL	16fn\LL	<	[4.ffn\	<
16A-X\	16dd-X\	.	.	.
16d-X\	16a-X\	.	.	.
!	!LO:TX:b:i:t=poco a poco	!	!	!
16A-\	16ffn\	.	.	.
16D-\	16dd-\	.	.	.
16A-\JJ	16a-\JJ	.	.	.
!	!	!	!LO:TX:b:i:t=poco a poco	!
16d-\LL	16f\LL	.	8ff\L]	.
16A-\	16dd-\	.	.	.
16D-\	16a-\	.	(8dd-X\	.
16A-\	16ff\	.	.	.
16d-\	16dd-\	.	8bb-X\J)	.
16A-\JJ	16a-\JJ	.	.	.
=30	=30	=30	=30	=30
16AA-X\LL	16e-X/LL	.	[4.aa-X\	.
16E-X\	16dd-X/	.	.	.
16d-X\	16a-X/	.	.	.
16E-\	16ee-X/	.	.	.
16AA-\	16dd-/	.	.	.
16E-\JJ	16a-/JJ	.	.	.
16c\LL	16e-/LL	.	8aa-\L]	.
16E-\	16cc/	.	.	.
16AA-\	16a-/	.	(8ee-X\	.
16E-\	16ee-/	.	.	.
16c-X\	16cc-X/	.	8ffn\J)	.
16E-\JJ	16a-/JJ	.	.	.
!!LO:LB:g=original
=31	=31	=31	=31	=31
16E-X\LL	16g-X\LL	.	[4.gg-X\	.
16B-X\	16ee-X\	.	.	.
16e-X\	16b-X\	.	.	.
16B-\	16gg-X\	.	.	.
16E-\	16ee-\	.	.	.
16B-\JJ	16b-\JJ	.	.	.
16e-\LL	16g-\LL	.	8gg-\L]	.
16B-\	16ee-\	.	.	.
16E-\	16b-\	.	(8ee-X\	.
16B-\	16gg-\	.	.	.
16e-\	16ee-\	.	8ccc-X\J)	.
16B-\JJ	16b-\JJ	.	.	.
=32	=32	=32	=32	=32
16BB-X\LL	16fn\LL	.	[4.bb-X\	.
16Fn\	16ee-X\	.	.	.
16e-X\	16b-X\	.	.	.
16F\	16ffn\	.	.	.
16BB-\	16ee-\	.	.	.
16F\JJ	16b-\JJ	.	.	.
16d\LL	16f\LL	.	8bb-\L]	.
16F\	16dd\	.	.	.
16BB-\	16b-\	.	(8ffn\	.
16F\	16ff\	.	.	.
16d-X\	16dd-X\	.	8gg\J)	.
16F\JJ	16b-\JJ	.	.	.
=33	=33	=33	=33	=33
*ped	*	*	*	*
(16FFn/LL	8r	mf	8aa-X\L	f
16Cn/	.	.	.	.
!	!	!	!LO:TX:b:i:t=un poco appassionato	!
16Fn/	8A-X:/L 8c: 8fn: 8a-X:	.	8ffn\	.
16C/	.	.	.	.
16FF/	8c:/J 8f: 8a-: 8cc:	.	[8fffn\J	.
*Xped	*	*	*	*
16C/JJ	.	.	.	.
!LO:TX:b:i:t=marcato	!	!	!	!
8FF/L	4a-:\ 4dd-X: 4ffn: 4aa-X:	.	16fff\LL]	.
.	.	.	16eee-X\	.
8D-X/	.	.	16ddd-X\	.
.	.	.	(16ff\	.
[>8B-X/J	8r	.	16gg\	.
.	.	.	16aa-\JJ)	.
=34	=34	=34	=34	=34
16B-/LL]	4r	.	4.ddd-X\	.
16A-X/	.	.	.	.
16G/)	.	.	.	.
(16GG/	.	.	.	.
16AA-X/	8r	>	.	.
16BB-X/JJ	.	.	.	.
*ped	*	*	*	*
4.C/)	8r	p	[4ccc\	.
.	(8G'/L 8B-X 8e	.	.	.
*Xped	*	*	*	*
.	8B-'/J) 8e 8g	]	8ccc\]	.
!!LO:PB:g=original
=35	=35	=35	=35	=35
*ped	*	*	*	*
(16FFn/LL	8r	mf	[4.aaa-X\	.
16C/	.	.	.	.
16Fn/	8A-X:/L 8c: 8fn: 8a-X:	.	.	.
16C/	.	.	.	.
16FF/	8c:/J 8f: 8a-: 8cc:	.	.	.
16C/JJ	.	.	.	.
*Xped	*	*	*	*
8DD/L	4f:\ 4a-: 4cc: 4ffn:	.	16aaa-\LL]	.
.	.	.	16ggg\	.
8C/	.	.	16fffn\	.
.	.	.	(16ee~\	.
[>8A-X/J	8r	.	16ffn~\	.
.	.	.	16gg~\JJ)	.
=36	=36	=36	=36	=36
16A-/LL]	4r	.	(8aa-X\L	.
16F#/	.	.	.	.
16D/)	.	.	32aa-\LL	.
.	.	.	32gg\)	.
(16DD/	.	.	(32ffn\	.
.	.	.	32dd\JJJ	.
!	!	!	!LO:TUP:a	!
16EE-X/	8r	>	40b\LLL	.
.	.	.	40a-X\	.
.	.	.	40fn\	.
16FFn/JJ)	.	.	.	.
.	.	.	40d\	.
.	.	.	40B\JJJ	.
*ped	*	*	*	*
4.GG/	8r	] p	8G/)	.
!	!	!	!LO:TUP:a	!
.	(8B'/L 8fn 8g	.	24r	.
.	.	.	24gg\LL	.
.	.	.	24aa-\JJ	.
!	!	!	!LO:TUP:a	!
.	8d'/J) 8f 8b	.	24bb\LL	.
.	.	.	24ccc\	.
.	.	.	24ddd\JJ	.
=37	=37	=37	=37	=37
*	*	*	*^	*
*ped	*	*	*	*	*
16CC/LL	8r	mf	[4.ee-X/ [4.eee-X	4c\ 4g	.
16GG/	.	.	.	.	.
16C/	8E-X:/L 8G: 8c: 8e-X:	.	.	.	.
16GG/	.	.	.	.	.
16CC/	8G:/J 8c: 8e-: 8g:	.	.	2ryy	.
16GG/JJ	.	.	.	.	.
*Xped	*	*	*	*	*
(8AAA/L	4e-:/ 4g: 4cc: 4ee-X:	.	16ee-\LL] 16eee-]	.	.
.	.	.	16ddd\	.	.
8GG/	.	.	16ccc\	.	.
.	.	.	(16bn~\	.	.
[>8E-X/J	8r	.	16cc~\	.	.
.	.	.	16dd~\JJ)	.	.
*	*	*	*v	*v	*
!!LO:LB:g=original
=38	=38	=38	=38	=38
16E-/LL]	4r	.	[8ee-X\L	.
16C/	.	.	.	.
16AA/)	.	.	32ee-\LL]	.
.	.	.	(32bn\	.
(16AAA/	.	.	32cc\	.
.	.	.	32dd\JJJ	.
16BBB-X/	8r	.	32ee-X\LLL	.
.	.	.	32dd\	.
16CC/JJ)	.	.	32cc\	.
.	.	.	32a\JJJ	.
*ped	*	*	*	*
4.DD/	8r	.	8d/)	.
!	!	!LO:DY:rj	!	!
.	(8F#X'/L 8c 8d	p	8r	.
.	8A'/J) 8c 8f#	.	8dd\	.
*Xped	*	*	*	*
=39	=39	=39	=39	=39
*	*	*	*^	*
*ped	*	*	*	*	*
!	!	!LO:DY:rj	!	!	!LO:DY:rj
16GG\LL	8r	f	[4.b-X/ [4.bb-X	4G\ 4d	ff
16D\	.	.	.	.	.
16G\	8B-X:/L 8d: 8g: 8b-X:	.	.	.	.
16D\	.	.	.	.	.
16GG\	8d:/J 8g: 8b-: 8dd:	.	.	2ryy	.
*Xped	*	*	*	*	*
16D\JJ	.	.	.	.	.
!	!	!	!LO:TX:b:i:t=con gran passione	!	!
4GG:\ 4D: 4B-X:	4g:\ 4dd: 4bb-X:	.	16b-/LL] 16bb-]	.	.
.	.	.	16b-/ 16aa	.	.
.	.	.	16b-/ 16gg	.	.
.	.	.	(16cc~/ 16ff#X	.	.
8r	8r	.	16cc~/ 16gg	.	.
.	.	.	16cc~/JJ) 16aa	.	.
=40	=40	=40	=40	=40	=40
!	!LO:TX:b:i:t=suivez.	!	!	!	!
4r	4r	.	16b-X/LL 16bb-X	8G\ 8d	.
.	.	.	16b-/ 16aa	.	.
.	.	.	16b-/ 16gg	4ryy	.
.	.	.	(16cc~/ 16ff#X	.	.
8r	8r	.	16cc~/ 16gg	.	.
.	.	.	16cc~/JJ) 16aa	.	.
4r	4r	.	16b-/LL 16bb-	8G\ 8d	.
.	.	.	16b-/ 16aa	.	.
.	.	.	16b-/ 16gg	4ryy	.
!	!	!	!LO:TX:b:t=riten.	!	!
.	.	.	(16A/ 16a	.	.
8EE:/ 8AA: 8E:	8G:/ 8c#X: 8g:	sfz	16c#X/ 16cc#X	.	.
.	.	.	16e/JJ) 16ee	.	.
!!LO:LB:g=original
=41	=41	=41	=41	=41	=41
*	*^	*	*	*	*
!	!	!	!	!LO:SIC:v:s=4.fn?	!	!
!	!	!	!	!LO:TX:b:i:t=sonore	!	!
!LO:TX:b:i:t=con Pedale	!	!	!	!LO:TX:a:i:t=a tempo	!	!
16DD/LL	16Fn/LL	4.F\	pp	8ffn/	[4.f#\	.
16BB-X/	16d/	.	.	.	.	.
16D/	16B-X/	.	.	2ryy	.	.
16BB-/	16fn/	.	.	.	.	.
16DD/	16d/	.	.	.	.	.
16BB-/JJ	16B-/JJ	.	.	.	.	.
16D/LL	16B-/LL	4.B-\	.	.	8f#\L]	.
16BB-/	16f/	.	.	.	.	.
16DD/	16d/	.	.	.	(8b-X\	.
16BB-/	16b-X/	.	.	.	.	.
16D/	16f/	.	.	8ryy	8d\J)	.
16BB-/JJ	16d/JJ	.	.	.	.	.
*	*	*	*	*v	*v	*
=42	=42	=42	=42	=42	=42
16C\LL	16B-X/LL	4.B-\	.	8e-Xw</L	<
16E-X\	16g/	.	.	.	.
16G\	16e-X/	.	.	8d/	.
16E-\	16b-X/	.	.	.	.
16C\	16g/	.	.	(8e-/J	.
16E-\JJ	16e-/JJ	.	.	.	.
16Fn/LL	16A/LL	4.A\	.	8g/L)	.
16C/	16fn/	.	.	.	.
16FFn/	16e-/	.	.	(8fn~/	.
16C/	16a/	.	.	.	.
16F/	16f/	.	.	8e-~/J)	.
16C/JJ	16e-/JJ	.	.	.	.
=43	=43	=43	=43	=43	=43
16FF#X\LL	16d/LL	4.d\	.	[4.d/	.
16D\	16cc/	.	.	.	.
16A\	16a/	.	.	.	.
16D\	16dd/	.	.	.	.
16FF#\	16cc/	.	.	.	.
16D\JJ	16a/JJ	.	.	.	.
16B-X\LL	16G/LL	4.G\	.	8d/L]	.
16D\	16d/	.	.	.	.
16GG\	16B-X/	.	.	(8g/	[ p
16D\	16g/	.	.	.	.
16B-\	16d/	.	.	8d/J)	.
16D\JJ	16B-/JJ	.	.	.	.
!!LO:LB:g=original
=44	=44	=44	=44	=44	=44
16AA/LL	16G/LL	4.G\	.	8cw</L	.
16C/	16e-X/	.	.	.	.
!	!	!	!	!LO:TX:b:i:t=espress.	!
16E-X/	16c/	.	.	8B/	.
16C/	16g/	.	.	.	.
16AA/	16e-/	.	.	(8c/J	.
16C/JJ	16c/JJ	.	.	.	.
16D/LL	16F#/LL	4.F#\	.	8e-X/L)	.
16AA/	16d/	.	.	.	.
16DD/	16c/	.	.	(8d/	.
16AA/	16f#/	.	.	.	.
16D/	16d/	.	.	8c/J)	.
16AA/JJ	16c/JJ	.	.	.	.
*	*v	*v	*	*	*
=45	=45	=45	=45	=45
16GG#X/LL	(8Bn/L	<	[4.Bn/	<
16D/	.	.	.	.
16E#X/	8e#X/	.	.	.
16D/	.	.	.	.
!	!LO:TX:b:t=un poco	!	!	!
16GG#/	[>8dd/J	.	.	.
16D/JJ	.	.	.	.
!	!	!	!LO:TX:b:t=poco a poco	!
16F#/LL	16dd\LL]	.	8B/L]	.
16D/	(16bb\)	.	.	.
16FF#/	16dd\	.	(8b/	.
16D/	16b\	.	.	.
16F#/	16f#\	.	8B/J)	.
16D/JJ	16d\JJ)	.	.	.
=46	=46	=46	=46	=46
*	*^	*	*	*
16Fn/LL	(16G/LL	[4.G\	.	4.d/	.
16D/	16d/	.	.	.	.
16FFn/	16B/	.	.	.	.
16D/	16g/	.	.	.	.
16F/	16d/	.	.	.	.
16D/JJ	16B/JJ	.	.	.	.
16E/LL	16G/LL	4G\]	.	(4c/	.
16C/	16e/	.	.	.	.
16EE/	16c/	.	.	.	.
16C/	16g/	.	.	.	.
16E/	16A/	8A\	.	8c'/)	.
16C/JJ	16g/JJ)	.	.	.	.
*	*v	*v	*	*	*
=47	=47	=47	=47	=47
16DD#X/LL	(8B/L	<	[4.B/	.
16BB/	.	.	.	.
16A/	8f#/	.	.	.
16BB/	.	.	.	.
16DD#/	[>8b/J	.	.	.
16BB/JJ	.	.	.	.
16G/LL	16b\LL])	.	8B/L]	.
16BB/	(16gg\	[	.	.
16EE/	16ee\	.	(8b/	.
16BB/	16b\	.	.	.
16G/	16g\	.	8B/J)	.
16BB/JJ	16e\JJ)	.	.	.
!!LO:PB:g=original
=48	=48	=48	=48	=48
*	*^	*	*	*
16BB-X\LL	(16d/LL	4.d\	>	(4.d/	>
16E\	16g/	.	.	.	.
16G\	16e/	.	.	.	.
16E\	16dd/	.	.	.	.
16BB-\	16g/	.	.	.	.
16E\JJ	16e/JJ	.	.	.	.
16G\LL	16c#X/LL	4.c#\	.	4c#X/)	.
16E\	16g/	.	.	.	.
16AA\	16e/	.	.	.	.
16E\	16cc#X/	.	.	.	.
16G\	16g/	.	.	8c#/	.
16E\JJ	16e/JJ)	.	.	.	.
=49	=49	=49	=49	=49	=49
16BB\LL	(16d/LL	4.d\	pp	[4.d/	pp
16D\	16b/	.	.	.	.
16G\	16g/	.	.	.	.
16D\	16dd/	.	.	.	.
16BB\	16b/	.	.	.	.
16D\JJ	16g/JJ	.	.	.	.
16G\LL	16dd/LL	4.dd\	.	4d/]	.
16D\	16bb/	.	.	.	.
16BB\	16gg/	.	.	.	.
16D\	16ddd/	.	.	.	.
16F#\	16bb/	.	.	(8d/	.
16D\JJ	16gg/JJ	.	.	.	.
=50	=50	=50	=50	=50	=50
16C#X\LL	16ee/LL	4.ee\	.	8e/L)	.
16E\	16aa/	.	.	.	.
16A\	16gg/	.	.	(8f#~/	.
16E\	16eee/	.	.	.	.
16C#\	16aa/	.	.	8g~/J)	.
16E\JJ	16gg/JJ	.	.	.	.
16D\LL	8ee/	16ee\LL	.	(4a/	.
16F#\	.	16cc\	.	.	.
16A\	16ryy	16f#\	.	.	.
16D\	8dd/	16dd\	.	.	.
16F#\	.	16cc\	.	8d/)	.
16A\JJ	16ryy	16f#\JJ)	.	.	.
=51	=51	=51	=51	=51	=51
16GG\LL	(16d/LL	4.d\	<	[4.b\	<
16D\	16b/	.	.	.	.
16B\	16g/	.	.	.	.
16D\	16dd/	.	.	.	.
16GG\	16b/	.	.	.	.
16D\JJ	16g/JJ	.	.	.	.
16B\LL	16g/LL	4.g\	.	8b\L]	.
16D\	16dd/	.	.	.	.
16GG\	16b/	.	.	(8g\	.
16D\	16gg/	.	.	.	.
16B\	16dd/	.	.	8ee\J)	.
16D\JJ	16b/JJ	.	.	.	.
!!LO:LB:g=original
=52	=52	=52	=52	=52	=52
16GG\LL	16b/LL	4.b\	.	[4.dd\	.
16D\	16gg/	.	.	.	.
16B\	16dd/	.	.	.	.
16D\	16bb/	.	.	.	.
16GG\	16gg/	.	.	.	.
16D\JJ	16dd/JJ	.	.	.	.
16B\LL	16b/LL	4.ryy	[ >	4dd\]	.
16D\	16g/	.	.	.	.
16GG\	16d/	.	.	.	.
16D\	16b/	.	.	.	.
!	!	!	!	!LO:TX:b:i:t=dolce	!
16B\	16g/	.	.	8gg\	[
16D\JJ	16e/JJ)	.	.	.	.
=53	=53	=53	=53	=53	=53
16AA\LL	(16c/LL	4.c\	] pp	4.ff#\	.
16D\	16f#/	.	.	.	.
16A\	16d/	.	.	.	.
16D\	16cc/	.	.	.	.
16AA\	16f#/	.	.	.	.
16D\JJ	16d/JJ	.	.	.	.
16G\LL	16g/LL	4.g\	.	4.ee\	.
16C\	16ee/	.	.	.	.
16GG\	16cc/	.	.	.	.
16C\	16gg/	.	.	.	.
16G\	16ee/	.	.	.	.
16C\JJ	16cc/JJ	.	.	.	.
=54	=54	=54	=54	=54	=54
16FF#/LL	16cc/LL	4.cc\	.	(4dd\	.
16D/	16aa/	.	.	.	.
16A/	16dd/	.	.	.	.
16D/	16ccc/	.	.	.	.
16FF#/	16aa/	.	.	8a/)	.
16D/JJ	16dd/JJ	.	.	.	.
!	!	!	!	!LO:TX:b:i:t=espress.	!
16A/LL	16cc/LL	4.ryy	.	8cc\L	.
16C/	16a/	.	.	.	.
16EE/	16e/	.	.	8cc\	.
16C/	16cc/	.	.	.	.
16A/	16a/	.	.	8cc\J	.
16C/JJ	16e/JJ)	.	.	.	.
=55	=55	=55	=55	=55	=55
16DD#X/LL	(16B/LL	4.B\	.	(4.b\	<
16BB/	16a/	.	.	.	.
16A/	16f#/	.	.	.	.
16BB/	16b/	.	.	.	.
16DD#/	16a/	.	.	.	.
16BB/JJ	16f#/JJ	.	.	.	.
16G/LL	16g/LL	4.g\	.	8b/L)	.
16BB/	16ee/	.	.	.	.
16EE/	16b/	.	.	8a/	.
16BB/	16gg/	.	.	.	.
16G/	16ee/	.	.	[8g/J	.
16BB/JJ	16b/JJ	.	.	.	.
!!LO:LB:g=original
=56	=56	=56	=56	=56	=56
16AA\LL	16b/LL	4.b\	.	8g/L]	.
16E\	16gg/	.	.	.	.
16G\	16dd/	.	.	8f#/	.
16E\	16bb/	.	.	.	.
16AA\	16gg/	.	.	[8e/J	.
16E\JJ	16dd/JJ	.	.	.	.
16G\LL	8b/	16b\LL	.	8eW/L]	.
16E\	.	16g\	.	.	.
16AA\	16ryy	16d\	.	(8d/	.
16E\	8a/	16a\	.	.	.
16G\	.	16g\	.	8c/J)	.
16E\JJ	16ryy	16c#X\JJ	.	.	.
*	*v	*v	*	*	*
=57	=57	=57	=57	=57
16DD/LL	16A/LL	<	([4.e/	.
16AA/	16a/	.	.	.
16E/	16g/	.	.	.
16AA/	16cn/	.	.	.
16DD/	16e/	.	.	.
16AA/JJ	16g/JJ	.	.	.
16D/LL	8f#/)	.	16e/LL]	.
16AA/	.	.	16dd/)	[
16DD/	8r	.	(16cc~/	p
16AA/	.	.	16e~/	.
16D/	[8ccc\	[[	16f#~/	.
16AA/JJ	.	.	16g~/JJ)	.
=58	=58	=58	=58	=58
16DD/LL	8ccc\]	.	(4.b\	.
16AA/	.	.	.	.
16E/	8r	.	.	.
16AA/	.	.	.	.
16DD/	(8g/	>	.	.
16AA/JJ	.	.	.	.
16D/LL	16f#/LL	.	4a/)	.
16AA/	16ee/	.	.	.
16DD/	16dd/	.	.	.
16AA/	16A/	.	.	.
16F#/	16B/	.	8d/	p
16AA/JJ	16c/JJ	]]	.	.
=59	=59	=59	=59	=59
*	*^	*	*^	*
16GG\LL	16B/LL	4.B\	pp	[4.b/	8b\L	<
16D\	16b/	.	.	.	.	.
16G\	16g/	.	.	.	8g\	.
16D\	16d/	.	.	.	.	.
!	!	!	!	!LO:TX:b:i:t=poco a poc	!	!
16GG\	16e/	.	.	.	8d\J	.
16D\JJ	16f#/JJ	.	.	.	.	.
16G\LL	8d/)	4.ryy	.	8b/L]	8g\L	.
16D\	.	.	.	.	.	.
16GG\	8r	.	.	(8ee/	8e\	.
16D\	.	.	.	.	.	.
16G\	8b'\	.	.	8b/J)	8g\J	.
16D\JJ	.	.	.	.	.	.
!!LO:LB:g=original
=60	=60	=60	=60	=60	=60	=60
!	!	!	!	!LO:TX:b:i:t=stringendo	!	!
.	8qcc/	.	<	.	.	.
16AA\LL	(8ccc/	16ccc\LL	.	[4.cc/	8g\L	.
16D\	.	16gg\	.	.	.	.
16A\	4ryy	16ee\	.	.	8f#\	.
16D\	.	16cc\	.	.	.	.
!	!LO:TX:b:i:t=poco a poco e stringendo	!	!	!	!	!
16AA\	.	16g\	.	.	8e\J	.
16D\JJ	.	16e\JJ	.	.	.	.
16A\LL	16c/LL	4.c\	.	8cc/L]	8f#\	.
16D\	16cc/	.	.	.	.	.
16AA\	16f#/	.	.	(8b~/	8r	.
16D\	16d/	.	.	.	.	.
16A\	16e/	.	.	8cc~/J)	8f#\	.
16D\JJ	16f#/JJ	.	.	.	.	.
=61	=61	=61	=61	=61	=61	=61
16BB\LL	16d/LL	4.d\	.	[4.dd/	8f#\L	.
16F#\	16dd/	.	.	.	.	.
16B\	16b/	.	.	.	8b\	.
16F#\	16f#/	.	.	.	.	.
16BB\	16g/	.	.	.	8a\J	.
16F#\JJ	16a/JJ	.	.	.	.	.
16B\LL	8d/)	4.ryy	.	8dd/L]	8g\L	.
16G\	.	.	.	.	.	.
16BB\	8r	.	.	(8gg/	8b\	.
16G\	.	.	.	.	.	.
16B\	8b'\	.	.	8dd#X/J)	8fn\J	.
16G\JJ	.	.	.	.	.	.
=62	=62	=62	=62	=62	=62	=62
.	8qee/	.	.	.	.	.
16C\LL	(8eee/	16eee\LL	.	8ee/	8e\L	.
16G\	.	16bb\	.	.	.	.
16B\	4ryy	16gg\	.	[4ee/	8ee\	.
16G\	.	16ee\	.	.	.	.
16C\	.	16b\	.	.	8dd\J	.
16G\JJ	.	16g\JJ	.	.	.	.
16B\LL	16e/LL	[4.e\	.	8ee/L]	4cc\	.
16G\	16ee/	.	.	.	.	.
16C\	16b/	.	.	(8ff#/	.	.
16G\	16g/	.	.	.	.	.
16B\	16a/	.	.	8gg/J)	8b\	.
16G\JJ	16b/JJ	.	.	.	.	.
=63	=63	=63	=63	=63	=63	=63
16FF#\LL	16e/LL	4.e\]	.	[4.aa/	8a\L	.
16C\	16ee/	.	.	.	.	.
16A\	16cc/	.	.	.	8ff#\	.
16C\	16a/	.	.	.	.	.
16FF#\	16b/	.	.	.	8ee\J	.
16C\JJ	16cc/JJ	.	.	.	.	.
16B\LL	8d#X/)	8d#\	.	8aa/L]	8dd#X\L	.
16F#\	.	.	.	.	.	.
16BB\	8r	4ryy	.	(8bb/	8b\	.
16F#\	.	.	.	.	.	.
16B\	8r	.	.	8ff#/J)	8dd#\J	.
16F#\JJ	.	.	.	.	.	.
*	*v	*v	*	*	*	*
*	*	*	*v	*v	*
!!LO:PB:g=original
=64	=64	=64	=64	=64
*ped	*	*	*	*
!	!	!	!LO:TX:t=P:problem:LO:N:vis=4	!
16EE/LL	8r	ff	8ee\ 8gg	.
16BB/	.	.	.	.
16G/	8B:/L 8e: 8g: 8b:	.	8r	.
16BB/	.	.	.	.
16EE/	8g:/J 8b: 8ee: 8gg:	.	[8gg^u\ [8ggg	ff
*Xped	*	*	*	*
16BB/JJ	.	.	.	.
*ped	*	*	*	*
!LO:TX:a:i:t=riten.	!	!	!LO:TX:b:i:t=riten.	!
16A#X/LL	8r	.	8gg\L] 8ggg]	.
16C#X/	.	.	.	.
16FF#/	8e:\ 8a#X: 8cc#X: 8ff#:	.	(8ff#~\ 8fff#	.
16C#/	.	.	.	.
16A#/	8r	.	8ee~\J) 8eee	.
*Xped	*	*	*	*
16C#/JJ	.	.	.	.
=65	=65	=65	=65	=65
!	!LO:TX:b:i:t=a tempo	!	!LO:TX:b:i:t=a tempo	!
16BB\LL	16r	.	4.dd\ [4.ddd	.
16F#\	(16dd\LL	.	.	.
16B\	16b\	.	.	.
16F#\	16f#\	.	.	.
16BB\	16g\	.	.	.
!	!LO:TX:b:i:t=espress.	!	!	!
16F#\JJ	16a\JJ)	.	.	.
!	!	!	!LO:TX:b:i:t=e con gran espressione	!
16B\LL	(8dd\L	.	16dd\LL 16ddd]	.
16G\	.	.	16bb\	.
16E\	8gg\	.	16gg\	.
16G\	.	.	(16ee~\	.
16B\	8b\J)	.	16ff#~\	.
16G\JJ	.	.	16gg~\JJ)	.
=66	=66	=66	=66	=66
.	8qa/	.	8qgg/	.
*	*^	*	*	*
(8AAW</L	8ccc/	(>16ccc\LL	.	4.ccc\	.
.	.	16gg\	.	.	.
8GG#X/	2ryy	16ee\	.	.	.
.	.	16cc\	.	.	.
8AA/J	.	16g\	.	.	.
.	.	16e\JJ	.	.	.
8D\L)	.	16c\LL	.	[4ff#\	.
.	.	16cc\	.	.	.
(8d\	.	16c\)	.	.	.
!	!	!	!LO:HP:a	!	!
.	.	(16e\ 16f#	<	.	.
8D\J	8ryy	16d\ 16g	.	8ff#'\]	.
.	.	16c\JJ 16a	.	.	.
!!LO:LB:g=original
=67	=67	=67	=67	=67	=67
16GG\LL	16B/LL	4.B\	[	[4.bb\	.
16D\	16b/	.	.	.	.
16G\	16f#/	.	.	.	.
16D\	16d/	.	.	.	.
16GG\	16e/	.	.	.	.
16D\JJ	16f#/JJ)	.	.	.	.
16G\LL	(8b\L	4.ryy	.	16bb\LL]	.
16E\	.	.	.	16gg\	.
16C\	8ee\	.	.	16ee\	.
16E\	.	.	.	(16cc~\	.
16G\	8g\J	.	.	16dd~\	.
16E\JJ)	.	.	.	16ee~\JJ)	.
=68	=68	=68	=68	=68	=68
.	.	.	.	8qee/	.
(8FF#W</L	8aa/	16aa\LL	.	4.aa\	.
.	.	16ee\	.	.	.
8EE/	4ryy	16cc\	.	.	.
.	.	16a\	.	.	.
8FF#/J	.	16e\	.	.	.
.	.	16c\JJ	.	.	.
8BB/L)	16A/LL	4.ryy	.	[4dd\	.
.	16a/	.	.	.	.
(8BBB/	16A/)	.	.	.	.
.	(16c/ 16d	.	<	.	.
8BB/J	16B/ 16e	.	.	8dd'\]	.
.	16A/JJ 16f#	.	.	.	.
*	*v	*v	*	*	*
=69	=69	=69	=69	=69
16EE/LL	16G/LL	[	[4.gg\	<
16BB/	16g/	.	.	.
16E/	16e/	.	.	.
16BB/	16A/	.	.	.
16EE/	16B/	.	.	.
16BB/JJ	16c/JJ	.	.	.
!	!	!	!LO:TX:b:i:t=molto	!
16D/LL	16fn\LL	.	8gg\L]	.
16GG/	16ffn\	.	.	.
16DD/	16f\)	.	8g\	.
16GG/	(16a\ 16b	<	.	.
16D/	16g\ 16cc	.	[8gg\J	.
16GG/JJ)	16f\JJ 16dd	.	.	.
!!LO:LB:g=original
=70	=70	=70	=70	=70
*	*^	*	*	*
*ped	*	*	*	*	*
!	!	!	!	!LO:TX:t=P:problem:mixed beam	!
(16CC#X/LL	4.ee/	16ee\LL	.	8gg\L]	.
16AA/	.	16a\	.	.	.
16E/	.	16g\	.	8G\	.
16C#X/	.	16e\	.	.	.
16G/	.	16f#\	.	[8bb^\J [8ggg	ff
16A/JJ	.	16g\JJ	.	.	.
*Xped	*	*	*	*	*
8C#:\) 8A: 8e:	8g\) 8a 8ee 8aa	4.ryy	[ ff	16bb\LL] 16ggg]	.
.	.	.	.	(16gg\ 16eee#X	.
8r	8r	.	.	16ee\) 16ccc#X	.
.	.	.	.	16cc#X\ 16aa	.
8r	8r	.	.	(16b\ 16gg	.
.	.	.	.	16g\JJ) 16ee	.
*	*v	*v	*	*	*
=71	=71	=71	=71	=71
!	!	!	!LO:TX:b:i:t=con passione	!
8D:\ 8G: 8B: 8d:	8b:\ 8dd: 8gg: 8bb:	.	16b/LL 16dd	.
.	.	.	16d/JJ	.
8r	8r	.	8.dd\L 8.bb	.
[>8D/	(8B/ 8d	>	.	.
.	.	.	(16cc#X\Jk 16aa#X	.
4DD/ 4D]	8B/) 8d 8g 8b	.	16ee\LL) 16cccn	.
.	.	.	16dd\ 16bb	.
.	8r	]	16cc#X\ 16aa#	.
.	.	.	16ee\ 16cccn	.
8r	8r	.	(16dd\ 16bb	.
.	.	.	16b\JJ) 16gg	.
=72	=72	=72	=72	=72
*	*	*	*^	*
[[4DD/	4A:/ 4e: 4g: 4cc:	.	(16g\LL 16ee	4.ryy	.
.	.	.	16g\) 16a	.	.
.	.	.	16e\ 16cc	.	.
.	.	.	16a\ 16cc	.	.
8ryy	8r	.	(16g\ 16ee	.	.
.	.	.	16g\JJ) 16a	.	.
!	!LO:TX:b:i:t=ritard.	!	!LO:TX:b:i:t=ritard.	!	!
8DD/L]]	8c/ 8d 8f#	.	8.cc/L	(>16f#\LL	.
.	.	.	.	16e\	.
!	!	!LO:HP:b=2	!	!	!
(8D'/	8r	>	.	16d\)	.
.	.	.	(16f#/L	16d\	.
8DD'/J)	8r	]]	16g/	16c#X\	.
.	.	.	16a/JJ)	16cn\JJ	.
*	*	*	*v	*v	*
!!LO:LB:g=original
=73	=73	=73	=73	=73
*	*^	*	*	*
!	!LO:TX:a:i:t=a tempo	!	!	!LO:TX:a:i:t=a tempo	!
16GGG/LL	4r	4.ryy	.	(>4.B/ [4.g	>
16D/	.	.	.	.	.
16G/	.	.	.	.	.
16D/	.	.	.	.	.
16GG/	8r	.	.	.	.
16D/JJ	.	.	.	.	.
16Fn/LL	(16A/LL	4A\	>	4.g/_>	.
16D/	16fn/	.	.	.	.
16GG/	16d/	.	.	.	.
16D/	16a/	.	.	.	.
16F/	16G/	8G\	.	.	.
16D/JJ	16g/JJ	.	.	.	.
=74	=74	=74	=74	=74	=74
16GG/LL	16G/LL	4.G\	.	4.g/_>	.
16C/	16e/	.	.	.	.
16E/	16c/	.	.	.	.
16C/	16g/	.	.	.	.
16GG/	16e/	.	.	.	.
16C/JJ	16c/JJ	.	.	.	.
16E-X/LL	16G/LL	4G\	.	4g/]	.
16C/	16e-X/	.	.	.	.
16GG/	16c/	.	.	.	.
16C/	16g/	.	]	.	.
16E-/	16e-/	8ryy	.	8g/)	] pp
16C/JJ	16c/JJ	.	.	.	.
*	*v	*v	*	*	*
=75	=75	=75	=75	=75
16FFn/LL	8A/L)	pp	(4.av/	.
16C/	.	.	.	.
16Fn/	(8fn/	.	.	.
16C/	.	.	.	.
16FF/	8e-X/J	.	.	.
16C/JJ	.	.	.	.
16F/LL	8d/L	.	[4.dd\	.
16D/	.	.	.	.
16FF/	8f/	.	.	.
16D/	.	.	.	.
16F/	8b-X/J	.	.	.
16D/JJ	.	.	.	.
=76	=76	=76	=76	=76
16FFn/LL	8dd\)	.	4dd\])	.
16D/	.	.	.	.
16G#X/	16r	.	.	.
16D/	(16bn/LL	pp	.	.
!	!	!	!LO:TX:b:i:t=espress.	!
!	!	!	!LO:TX:a:i:t=4ta corde	!
16FF/	16g#X/	.	(8d/	.
16D/JJ	16d/JJ	.	.	.
16G#/LL	16B/LL	.	8fn/L)	.
16D/	16g#/	.	.	.
16EE/	16d/	.	(8e~/	.
16D/	16b/	.	.	.
16G#/	16g#/	.	8d~/J)	.
16D/JJ	16d/JJ	.	.	.
!!LO:PB:g=original
=77	=77	=77	=77	=77
16AA\LL	8c/L)	.	(4.c/	.
16E\	.	.	.	.
16A\	(8e/	<	.	.
16E\	.	.	.	.
16AA\	8a/J	.	.	.
16E\JJ	.	.	.	.
16A\LL	8cc\L	.	4e/)	.
16E\	.	.	.	.
16GG\	8ee\	.	.	.
16E\	.	.	.	.
16A\	8aa\J	.	(8e/	.
16E\JJ	.	.	.	.
=78	=78	=78	=78	=78
16FF#\LL	8ccc\)	.	4a/	.
16E\	.	.	.	.
16A\	16r	[	.	.
16E\	(16ee\LL	pp	.	.
16FF#\	16cc\	.	8A/)	.
16E\JJ	16a\JJ	.	.	.
16B\LL	16d#X/LL	.	(4c/	.
16F#\	16b/	.	.	.
16BB\	16a/	.	.	.
16F#\	16dd#X/	.	.	.
16B\	16b/	.	8B/)	.
16F#\JJ	16a/JJ	.	.	.
=79	=79	=79	=79	=79
16EE/LL	8g/L)	.	[4.g/	p
16BB/	.	.	.	.
16G/	(8B/	<	.	.
16BB/	.	.	.	.
16EE/	8e/J	.	.	.
16BB/JJ	.	.	.	.
16G/LL	8g\L	.	8g/L]	.
16BB/	.	.	.	.
16EE/	8b\	.	(8f#/	.
16BB/	.	.	.	.
16G/	8ee\J	[[	8g/J	.
16BB/JJ	.	.	.	.
=80	=80	=80	=80	=80
!	!	!	!LO:TX:b:i:t=espress.	!
16CC#X/LL	8gg\)	.	8b/L)	.
16BB/	.	.	.	.
16E/	16r	pp	8a/	.
16BB/	(16b/LL	.	.	.
16CC#/	16g/	.	[8g/J	.
16BB/JJ	16e/JJ	.	.	.
16G/LL	16A#X/LL	.	8gw</L]	.
16AA#X/	16g/	.	.	.
16EE/	16c#X/	.	(8f#/	.
16AA#/	16a#X/	.	.	.
16G/	16g/	.	8e/J)	.
16AA#/JJ	16c#/JJ)	.	.	.
!!LO:LB:g=original
=81	=81	=81	=81	=81
!	!LO:TX:b:i:t=dolce	!	!	!
.	8qf#/	.	.	.
16DD/LL	(8ff#\L	.	(4f#/	.
16BB/	.	.	.	.
16F#/	8ee\	.	.	.
16BB/	.	.	.	.
16DD/	[8dd\J	.	8d/)	.
16BB/JJ	.	.	.	.
16F#/LL	8dd\L]	.	4B/	.
16BB/	.	.	.	.
16DD/	8cc#X\	.	.	.
16BB/	.	.	.	.
16F#/	8b\J)	.	(8B/	.
16BB/JJ	.	.	.	.
=82	=82	=82	=82	=82
*	*^	*	*	*
16EE/LL	(4.b/	8.b\L	.	8b/L)	.
16BB/	.	.	.	.	.
16G/	.	.	.	8a/	.
16BB/	.	16B\L	.	.	.
16EE/	.	16c#X\	.	[8g/J	.
16BB/JJ	.	16g\JJ	.	.	.
16G\LL	4.a/)	16a\LL	.	8gw</L]	.
16E\	.	16g\	.	.	.
16AA\	.	16c#\	.	8f#/	.
16E\	.	16A\	.	.	.
16G\	.	16c#\	.	8e/J	.
16E\JJ	.	16g\JJ	.	.	.
*	*v	*v	*	*	*
=83	=83	=83	=83	=83
!	!LO:TX:b:i:t=espress.	!	!LO:TX:b:i:t=sonore	!
.	8qd/	.	.	.
16BB\LL	(8dd\L	.	[4.d/	.
16D\	.	.	.	.
16G\	8cc\	.	.	.
16D\	.	.	.	.
16BB\	[8b\J	.	.	.
16D\JJ	.	.	.	.
16G\LL	8b/L]	.	8d/L]	.
16D\	.	.	.	.
16BB\	8a/	.	(8g/	.
16D\	.	.	.	.
16G\	8g/J)	.	8B/J)	.
16D\JJ	.	.	.	.
=84	=84	=84	=84	=84
*	*^	*	*	*
16AA\LL	(4.cc/	8.cc\L	.	8cw</L	.
16E\	.	.	.	.	.
16G\	.	.	.	8B/	.
16E\	.	16c\L	.	.	.
16AA\	.	16e\	.	(8c/J	.
16E\JJ	.	16g\JJ	.	.	.
16D/LL	4.f#/	16f#\LL	.	8e/L)	.
16AA/	.	16d\	.	.	.
16DD/	.	16c\	.	(8d/	.
16AA/	.	16F#\	.	.	.
16D/	.	16c\	.	8c/J)	.
16AA/JJ	.	16d\JJ)	.	.	.
*	*v	*v	*	*	*
!!LO:LB:g=original
=85	=85	=85	=85	=85
.	8qb/	<	.	.
16DD#X/LL	(8bb\L	.	[4.B/	p <
16BB/	.	.	.	.
16F#/	8aa\	.	.	.
16BB/	.	.	.	.
16DD#/	[8gg\J	.	.	.
16BB/JJ	.	.	.	.
16G/LL	8gg\L]	.	8B/L]	.
16BB/	.	.	.	.
16EE/	8ff#\	.	(8e/	.
16BB/	.	.	.	.
16G/	8ee\J)	.	8B/J)	.
16BB/JJ	.	.	.	.
=86	=86	=86	=86	=86
*	*^	*	*	*
16FF#/LL	4.ee/	(>8.ee\L	.	8A/L	.
16C/	.	.	.	.	.
16A/	.	.	.	8G#X/	.
16C/	.	16e\L	.	.	.
16FF#/	.	16a\	.	(8A/J	.
16C/JJ	.	16cc\JJ	.	.	.
16B\LL	4.ryy	16dd#X\LL	.	8c/L)	.
16F#\	.	16b\	.	.	.
16BB\	.	16a\	.	(8B/	.
16F#\	.	16d#X\	.	.	.
16B\	.	16a\	.	8A/J)	[[
16F#\JJ	.	16b\JJ)	.	.	.
=87	=87	=87	=87	=87	=87
.	8qdn/	.	[ >	.	.
16FFn/LL	(>8dd/L	4.ryy	.	[4.Gn/	.
16D/	.	.	.	.	.
16G/	8b/	.	.	.	.
16D/	.	.	.	.	.
16FF/	8a/J	.	.	.	.
16D/JJ	.	.	.	.	.
16G/LL	4.g/	8g\L	.	8G/L]	.
16C/	.	.	.	.	.
16EE/	.	8e\	.	(8c/	>
16C/	.	.	.	.	.
16G/	.	8c\J)	.	8e/J	]]
16C/JJ	.	.	.	.	.
*	*v	*v	*	*	*
=88	=88	=88	=88	=88
16CC/LL	(8G/L	]	8g\L)	.
16GG/	.	.	.	.
16E/	8e/	.	(8cc\	>
16GG/	.	.	.	.
16CC/	8c/J	.	8ee\J	.
16GG/JJ	.	.	.	.
16E-X/LL	8g/L	.	16gg\LL)	.
16GG/	.	.	(16bb\	.
16CC/	8e-X/	.	16ccc\	.
16GG/	.	.	16eee-X\)	.
16E-/	8c/J)	.	16ggg\	.
16GG/JJ	.	.	16aaa\JJ	.
!!LO:LB:g=original
=89	=89	=89	=89	=89
.	8qb/	pp	.	.
16GG\LL	(8bb\L	.	[2.bbb\	pp
16D\	.	.	.	.
16B\	8aa\	.	.	.
16D\	.	.	.	.
16GG\	[8gg\J	.	.	.
16D#X\JJ	.	.	.	.
16B\LL	8gg\L]	.	.	.
16D#\	.	.	.	.
16GG\	8ff#\	.	.	.
16E\	.	.	.	.
16c\	8ee\J	.	.	.
16F#\JJ	.	.	.	.
=90	=90	=90	=90	=90
16B\LL	8dd\L)	.	2.bbb\_	.
16Fn\	.	.	.	.
16GG\	(8b\	.	.	.
16F\	.	.	.	.
16B\	8a\J	.	.	.
16F\JJ	.	.	.	.
16c\LL	8g/L	.	.	.
16E\	.	.	.	.
16GG\	8f#/	.	.	.
16E\	.	.	.	.
16c\	8e/J	.	.	.
16F#X\JJ	.	.	.	.
=91	=91	=91	=91	=91
!	!	!	!LO:TX:t=P:problem:mixed beam	!
16B\LL	8d/)	<	8bbb\L]	.
16D\	.	.	.	.
!	!	!	!LO:TX:a:i:t=ritenuto	!
16GG\	8r	.	(8e/	<
!LO:TX:a:i:t=riten.	!	!	!	!
16D\	.	.	.	.
16B\	8r	.	8d/J	.
16D\JJ	.	.	.	.
16GG\LL	4r	.	8B/L)	.
16D\	.	.	.	.
16B\	.	.	(8A/	.
16D\	.	.	.	.
16GG\	8r	[[	8G/J)	[[
16D\JJ	.	.	.	.
=92	=92	=92	=92	=92
8B\	4r	.	[2.G/	>
8r	.	.	.	.
8r	8r	.	.	.
4.CC/ [4.GG	4.c/ 4.e-X [4.g	pp >	.	.
=93	=93	=93	=93	=93
2.GGG/ 2.GG]	2.B/ 2.d 2.g]	]]	2.G/]	]]
==	==	==	==	==
*-	*-	*-	*-	*-
!!!system-decoration: s1[(s2,s3)]
!!!RDF**kern: > = above
!!!RDF**kern: < = below
!!!RDF**dynam: > = dimin.
!!!ENC: Filip Voros
!!!END: 2022-03-19
!!!AIN: 2 empty
!!!ENC: Leszek Kubiak
!!!END: 2022-03-22
